public/images/icon-celebration--clay.svg

<svg width="16" height="16" viewBox="0 0 16 16" fill="none" xmlns="http://www.w3.org/2000/svg">
<path d="M1 1C1 0.4375 1.4375 0 2 0C2.5625 0 3 0.4375 3 1C3 1.5625 2.5625 2 2 2C1.4375 2 1 1.5625 1 1ZM14 5C14 4.4375 14.4375 4 15 4C15.5625 4 16 4.4375 16 5C16 5.5625 15.5625 6 15 6C14.4375 6 14 5.5625 14 5ZM15 13C15.5625 13 16 13.4375 16 14C16 14.5625 15.5625 15 15 15C14.4375 15 14 14.5625 14 14C14 13.4375 14.4375 13 15 13ZM4.6875 4.25C5.09375 3.84375 5.34375 3.59375 5.46875 3.46875C6 2.9375 6.34375 2.25 6.40625 1.53125L6.5 0.65625L8 0.84375L7.90625 1.6875C7.78125 2.75 7.3125 3.75 6.53125 4.53125L5.75 5.3125L4.6875 4.25ZM11.2188 9.71875L11.4688 9.46875C12.25 8.6875 13.25 8.21875 14.3125 8.09375L15.1562 8L15.3438 9.5L14.4688 9.59375C13.75 9.65625 13.0625 10 12.5312 10.5312C12.4062 10.6562 12.1562 10.9062 11.75 11.3125L10.6875 10.25L11.2188 9.71875ZM15.75 1.3125L15.4375 1.59375C14.9688 1.96875 14.375 2.1875 13.7812 2.15625C13.25 2.15625 12.8125 2.5625 12.7812 3.0625L12.7188 4C12.6562 5.34375 11.5312 6.375 10.1875 6.34375C9.96875 6.3125 9.71875 6.40625 9.5625 6.5625C9.375 6.6875 9.09375 6.9375 8.65625 7.3125L7.6875 6.15625C8.125 5.8125 8.40625 5.5625 8.59375 5.40625C9.03125 5.03125 9.625 4.8125 10.25 4.84375C10.75 4.84375 11.1875 4.4375 11.2188 3.9375L11.2812 3C11.375 1.65625 12.4688 0.625 13.8125 0.6875C14.0312 0.6875 14.2812 0.59375 14.4688 0.4375L14.7812 0.1875L15.75 1.3125ZM1 16L0 15L1.21875 11.9062L4.09375 14.8125L1 16ZM5.125 14.4062L1.59375 10.9062L2.3125 9.03125L6.96875 13.6875L5.125 14.4062ZM8 13.2812L2.71875 8L3.5 6L10 12.5L8 13.2812Z" fill="#9F7749"/>
</svg>

<svg width="16" height="16" viewBox="0 0 16 16" fill="none" xmlns="http://www.w3.org/2000/svg"><path d="M1 1c0-.563.438-1 1-1 .563 0 1 .438 1 1 0 .563-.438 1-1 1-.563 0-1-.438-1-1Zm13 4c0-.563.438-1 1-1 .563 0 1 .438 1 1 0 .563-.438 1-1 1-.563 0-1-.438-1-1Zm1 8c.563 0 1 .438 1 1 0 .563-.438 1-1 1-.563 0-1-.438-1-1 0-.563.438-1 1-1ZM4.687 4.25l.782-.781c.531-.531.875-1.219.937-1.938L6.5.656 8 .844l-.094.844A4.796 4.796 0 0 1 6.531 4.53l-.781.782L4.687 4.25Zm6.532 5.469.25-.25a4.796 4.796 0 0 1 2.844-1.375L15.155 8l.188 1.5-.875.094c-.719.062-1.406.406-1.938.937l-.781.781-1.063-1.062.532-.531Zm4.531-8.406-.313.28c-.468.376-1.062.595-1.656.563-.531 0-.969.406-1 .906L12.72 4a2.463 2.463 0 0 1-2.531 2.344.777.777 0 0 0-.626.218c-.187.125-.468.375-.906.75l-.969-1.156c.438-.343.72-.593.907-.75a2.375 2.375 0 0 1 1.656-.562c.5 0 .938-.407.969-.907L11.28 3c.095-1.344 1.19-2.375 2.532-2.313.22 0 .47-.093.657-.25l.312-.25.969 1.125ZM1 16l-1-1 1.219-3.094 2.875 2.906L1 16Zm4.125-1.594-3.531-3.5.718-1.875 4.657 4.656-1.844.72ZM8 13.281 2.719 8 3.5 6l6.5 6.5-2 .781Z" fill="#9F7749"/></svg>
